X:23
T:Brighton Camp
T: 'W' Dance
M:C
L:1/16
K:G
R: march
L: 1/4
K:G
P:A
g/f/| "G"ed/c/ BA | "C"BG E>F | "G"GG G/A/B/c/ | "D7"d2 Bg/f/|
"G"ed/c/ BA | "C"BG E>G | "D7"FA DE/F/ | "G"G2 G2|"D7"FA DE/F/ | "G"G2 G ||
P:B
|| d/c/ \
| "G"Bd "D7"ef | "G"gd "D7"B>A | "G"Bd "Em"ef | "C"g2 "D7"fg/f/|
"G"ed/c/ BA | "C"BG E>G | "D7"FA DE/F/ | "G"G2 G ||

